!!!OTL: Lied vom steinernen Brot (3-26), S. 85
!!!id: P0998
**kern
*clefG2
*k[b-]
*F:
{4f
=1
4.cc
8cc
4a
=2
4.a
8a
4a
=3
4a
4g}
=4
{4c
=5
2b-
4b-
=6
2a
4a
=7
4g
4g}
=8
{4a
=9
4.cc
8cc
4cc
=10
2b-
4a
=11
4a
4g}
=12
{8a
8g
=13
4.f
8f
8f
8f
=14
4e
4f
4g
=15
2f}
=16
{4a
=17
4.cc
8cc
4cc
=18
2b-
4a
=19
4a
4g}
=20
{8a
8g
=21
4.f
8f
8f
8f
=22
4e
4f
4g
=23
2f}
=24
{4f
=25
4.cc
8cc
4a
=26
2a
4a
=27
4a
4g}
=28
{4c
=29
2b-
8b-
8b-
=30
2a
4a
=31
2g}
=32
{4a
=33
2cc
4cc
=34
2b-
4a
=35
4a
4g}
=36
{4c
=37
2b-
4b-
=38
4.a
8g
4f
=39
4a
4g}
=40
{8a
8g
=41
4.f
8f
4f
=42
4e
4f
4g
=43
2f}
=44
{4a
=45
2cc
4cc
=46
2b-
4a
=47
4a
4g}
=48
{4c
=49
2b-
4b-
=50
4.a
8g
4f
=51
4a
4g}
=52
{8a
8g
=53
4.f
8f
4f
=54
4e
4f
4g
=55
2f}
==
*-
!!!minrhy: 8
!!!meters: 3/4 ]  ZZ[14
!!!cut: Lied vom steinernen Brot (3-26), S. 85
!!!reg: Lothringen
!!!trd: PINCK, Louis: Verklingende Weisen, Bd3, Metz 1933
!!!rhy1: X_  X_.XX_  X_.XX_  X_X_
!!!rhy2: X_  X__X_  X__X_  X_X_
!!!key: P0998  08  F 3/4 ]  ZZ[14
!!!mod: SECHSTONSKALA DUR ?]  AMBITUS[8
!!!kad: 22212122221221
!!!akz: 533_432_543_1-71_543_1-71_533_432_543_433_1-71_543_433_1-71_
!!!fot: 'a__b__c__d__c__d__av_bv_cv_bw_dv_cv_bw_dv_
!!!for: 'a__b__c__d__c__d__c__e__b__f__g__b__f__g__
!!!fok: '^a_^a_^d_\__^d_\__^a_^a_^d_^a_\__^d_^a_\__
!! PHRAS[AUFTAKTIG]
!!!fkt: N&auml;chstenliebe?
!! LOTH VKL
!! PR[18] 2K[10] 2G[13] 3K[8] 3G[0] 4A[0] 4Ü[0] 5A[3] 6K[0] 6G[0]
!! 7K[0] 7G[0] 8A[0] MEHR[0] SI[33] ABS[40] SR[23] SP[10]
!! ST[20] 2k[20] 2g[28] 3k[3] 3g[0] 4d[0] 4ü[0] 5d[0] 6k[0] 6g[0]
!! 7k[0] 7g[0] 8d[0] mehr[0] si[50] dm[-17] sr[48] sp[3]
!! 1F[5] 2F[67] 3F[12] 4F[0] LF[0] 2P[0] 3P[17] 4P[0] TRI[0] DF[4] AB[42]
!! TF[0] U3K[0] U3[0] U4[0] U4Ü[0] U5[0] U6K[0] U6[0] U7K[0] U7[5]
!! N1[22] N2K[0] N2[20] N3K[27] N3[0] N4[12] N4Ü[0] N5[10] N6K[0] N6[2]
!!!n7k: 2] N7[0] O1[0] O2K[0] O2[0] O3K[0] O3[0] HÖ[0
!!!RNB: symbol: &auml;      = a umlaut  (UTF-8: Å„)
